icons/socialite-filled.svg

<svg width="256" height="256" viewBox="0 0 256 256" fill="none" xmlns="http://www.w3.org/2000/svg">
<rect width="256" height="256" rx="60" fill="#E394BA" />
<path fill-rule="evenodd" clip-rule="evenodd" d="M117.375 194.345V124.909L43 52.3636V42H213V52.3636L138.625 124.909V194.345L181.125 202.636V213H74.875V202.636L117.375 194.345ZM154.562 84.2733C156.655 84.2733 158.728 83.8712 160.662 83.0899C162.595 82.3087 164.352 81.1636 165.832 79.7201C167.312 78.2766 168.486 76.5629 169.287 74.6768C170.088 72.7907 170.5 70.7693 170.5 68.7278C170.5 66.6864 170.088 64.6649 169.287 62.7788C168.486 60.8928 167.312 59.1791 165.832 57.7355C164.352 56.292 162.595 55.1469 160.662 54.3657C158.728 53.5845 156.655 53.1824 154.562 53.1824C150.336 53.1824 146.282 54.8202 143.293 57.7355C140.304 60.6509 138.625 64.6049 138.625 68.7278C138.625 72.8507 140.304 76.8048 143.293 79.7201C146.282 82.6355 150.336 84.2733 154.562 84.2733Z" fill="white"/>
</svg>

<svg xmlns="http://www.w3.org/2000/svg" width="256" height="256" fill="none"><rect width="256" height="256" fill="#E394BA" rx="60"/><path fill="#fff" fill-rule="evenodd" d="M117.375 194.345v-69.436L43 52.364V42h170v10.364l-74.375 72.545v69.436l42.5 8.291V213H74.875v-10.364zm37.187-110.072c2.093 0 4.166-.402 6.1-1.183a16 16 0 0 0 5.17-3.37 15.5 15.5 0 0 0 3.455-5.043 15.2 15.2 0 0 0 1.213-5.95c0-2.04-.412-4.062-1.213-5.948a15.5 15.5 0 0 0-3.455-5.044 16 16 0 0 0-5.17-3.37 16.3 16.3 0 0 0-6.1-1.183c-4.226 0-8.28 1.638-11.269 4.554-2.989 2.915-4.668 6.869-4.668 10.992s1.679 8.077 4.668 10.992 7.043 4.553 11.269 4.553" clip-rule="evenodd"/></svg>
